X:481
T:She Put Her Hand on My Knee
M:C
L:1/8
C:Trad.
K:G
"G"d2 dg "C"e2 dB |"G"d2 ed "D"BAAB|[1 "G"d2 dg "C"e2 dB|"D"A2 AB "G"AGGB:|[2 "G"degd "C"e2dB|"D"A2AB "G"AGGd||
|:"G"g2 ag "C"e2 de | "G"g2 ag "C"edeg | "D"abag "C"e2dB |[1 "D"A2 AB "G"AGGd:|[2 "D"A2 AB "G"AG G2||

%%newpage

